X:49
T: MEI MUTTER KOCHT MIR ZWIEBELN
N: E1045
O: Europa, Mitteleuropa, Deutschland, Schwaben, Schwaebisch - Hall
R: Tanz - Lied, Reigen; Salzsieder - Lied
M: 2/4
L: 1/16
K: G
D2 | G3AB2c2 | d2d^cd2
g2 | d2g2d2g2 | d4z2
d2 | c3BA2G2 | F2E2D2
d2 | G2d2G2d2 | G4z2

